!!!COM: Cristi, Alexandru
!!!CDT: b.1955
!!!OTL: National Anthem; Moldova - Limba Noastra (Our Tongue)
!!!ENC: Davis, Matthew J.
!!Vocal Line Only
**kern
*clefG2
*k[b-]
*F:
*M2/4
=1-
4f
4a
=2
8.cc
16cc
8bn
16cc
=3
4.dd
8cc
=4
2b-
=5
4g
4a
=6
8.b-
16cc
8dd
8cc
=7
2b-
=8
2a
=9
4f
8.a
16cc
=10
4.ff
8ee
=11
4dd
4cc
=12
4b-
4a
=13
4g
8b-
8dd
=14
8.cc
16b-
8a
8g
=15
2g
=16
2f
=17
4d
4f
=18
8.a
16a
8b-
8a
=19
2dd
=20
2cc#
=21
4g
4b-
=22
8.a
16g
8f
8e
=23
2g
=24
2f
=25
4d
8f
8a
=26
4.dd
8a
=27
4b-
4cc
=28
4dd
8cc
8b-
=29
4a
4b-
=30
8.a
16g
8f
8e
=31
2g
=32
4.f
=33
4f
4a
=34
8.cc
16cc
8bn
8cc
=35
4.dd
8cc
=36
2b-
=37
4g
4a
=38
8.b-
16cc
8dd
8cc
=39
2b-
=40
2a
=41
4f
8a
8cc
=42
4.ff
8ee
=43
4dd
4cc
=44
4b-
4a
=45
4g
8b-
8dd
=46
8.cc
16b-
8a
8g
=47
2g
=48
2f
==|!
*-
